public/images/icons/co2.svg

<?xml version="1.0" encoding="UTF-8"?>
<svg width="30px" height="26px" viewBox="0 0 30 26" version="1.1" xmlns="http://www.w3.org/2000/svg" xmlns:xlink="http://www.w3.org/1999/xlink">
    <title>co2</title>
    <defs>
        <filter color-interpolation-filters="auto" id="filter-1">
            <feColorMatrix in="SourceGraphic" type="matrix" values="0 0 0 0 0.974977 0 0 0 0 0.989612 0 0 0 0 0.991508 0 0 0 1.000000 0"></feColorMatrix>
        </filter>
        <path d="M27.357,13.6553988 C28.9641,14.9134471 30,16.8922 30,19.1176471 C30,22.9186941 26.97795,26 23.25,26 L6.75,26 C3.02208,26 0,22.9186941 0,19.1176471 C0,16.6331176 1.2912075,14.4560612 3.226755,13.2460671 C3.07884,12.6796494 3,12.0845094 3,11.4705882 C3,7.66957176 6.02208,4.58823529 9.75,4.58823529 C10.379235,4.58823529 10.98834,4.67602353 11.566215,4.84023647 C13.084155,1.95900824 16.0677,0 19.5,0 C24.47055,0 28.5,4.10844353 28.5,9.17647059 C28.5,10.8029847 28.08495,12.3306529 27.357,13.6553988 Z" id="path-2"></path>
    </defs>
    <g id="Homepage" stroke="none" stroke-width="1" fill="none" fill-rule="evenodd">
        <g id="co2" transform="translate(-445.000000, -2385.000000)" filter="url(#filter-1)">
            <g transform="translate(445.000000, 2385.000000)" id="Group">
                <g id="Clipped">
                    <mask id="mask-3" fill="white">
                        <use xlink:href="#path-2"></use>
                    </mask>
                    <g id="Path"></g>
                    <path d="M27.357,13.6553988 L26.0484,12.9078224 L25.4139,14.0624824 L26.4435,14.8684976 L27.357,13.6553988 Z M3.226755,13.2460671 L4.010805,14.5499212 L4.963905,13.9540929 L4.67625,12.8525647 L3.226755,13.2460671 Z M11.566215,4.84023647 L11.16351,6.31350353 L12.319665,6.64203647 L12.88764,5.56396941 L11.566215,4.84023647 Z M31.5,19.1176471 C31.5,16.3968235 30.2313,13.9773553 28.2705,12.4423 L26.4435,14.8684976 C27.69675,15.8496 28.5,17.3875765 28.5,19.1176471 L31.5,19.1176471 Z M23.25,27.5294118 C27.8064,27.5294118 31.5,23.7633882 31.5,19.1176471 L28.5,19.1176471 C28.5,22.074 26.1495,24.4705882 23.25,24.4705882 L23.25,27.5294118 Z M6.75,27.5294118 L23.25,27.5294118 L23.25,24.4705882 L6.75,24.4705882 L6.75,27.5294118 Z M-1.5,19.1176471 C-1.5,23.7633882 2.193645,27.5294118 6.75,27.5294118 L6.75,24.4705882 C3.8505,24.4705882 1.5,22.074 1.5,19.1176471 L-1.5,19.1176471 Z M2.442705,11.9422129 C0.08094705,13.4186612 -1.5,16.0791647 -1.5,19.1176471 L1.5,19.1176471 C1.5,17.1869176 2.50146,15.4934 4.010805,14.5499212 L2.442705,11.9422129 Z M1.5,11.4705882 C1.5,12.2185318 1.596105,12.94592 1.777245,13.6395847 L4.67625,12.8525647 C4.56156,12.4133788 4.5,11.9504871 4.5,11.4705882 L1.5,11.4705882 Z M9.75,3.05882353 C5.193645,3.05882353 1.5,6.82489294 1.5,11.4705882 L4.5,11.4705882 C4.5,8.51423529 6.8505,6.11764706 9.75,6.11764706 L9.75,3.05882353 Z M11.96892,3.36696941 C11.26119,3.16585176 10.516635,3.05882353 9.75,3.05882353 L9.75,6.11764706 C10.24182,6.11764706 10.71549,6.18618 11.16351,6.31350353 L11.96892,3.36696941 Z M12.88764,5.56396941 C14.154645,3.15904588 16.64175,1.52941176 19.5,1.52941176 L19.5,-1.52941176 C15.49365,-1.52941176 12.013665,0.758966 10.244805,4.11648824 L12.88764,5.56396941 Z M19.5,1.52941176 C23.6421,1.52941176 27,4.95312235 27,9.17647059 L30,9.17647059 C30,3.26378 25.299,-1.52941176 19.5,-1.52941176 L19.5,1.52941176 Z M27,9.17647059 C27,10.5344965 26.6541,11.8055447 26.0484,12.9078224 L28.6656,14.4029753 C29.5158,12.8557612 30,11.0714576 30,9.17647059 L27,9.17647059 Z" id="Shape" fill="#1E3791" fill-rule="nonzero" mask="url(#mask-3)"></path>
                </g>
                <path d="M8.68371,21.4117647 C9.827205,21.4117647 10.608975,20.8016824 10.99404,19.8610941 L10.31727,19.3655647 C9.990555,20.1154353 9.442155,20.5094118 8.68371,20.5094118 C7.575225,20.5094118 7.00347,19.6832235 7.00347,18.5393765 L7.00347,17.4209176 C7.00347,16.2770706 7.575225,15.4508824 8.68371,15.4508824 C9.418815,15.4508824 9.93222,15.8448588 10.15392,16.5185647 L10.93569,16.0863529 C10.58565,15.1839694 9.87387,14.5484835 8.68371,14.5484835 C6.9918,14.5484835 6,15.8829412 6,17.9800706 C6,20.0772 6.9918,21.4117647 8.68371,21.4117647 Z" id="Path" fill="#1E3791" fill-rule="nonzero"></path>
                <path d="M13.96872,21.4117647 C15.579,21.4117647 16.6875,20.0645059 16.6875,17.9800706 C16.6875,15.8957882 15.579,14.5484835 13.96872,14.5484835 C12.358485,14.5484835 11.25,15.8957882 11.25,17.9800706 C11.25,20.0645059 12.358485,21.4117647 13.96872,21.4117647 Z M13.96872,20.5094118 C12.965235,20.5094118 12.25347,19.8357059 12.25347,18.4503647 L12.25347,17.5099294 C12.25347,16.1244353 12.965235,15.4508824 13.96872,15.4508824 C14.97219,15.4508824 15.684,16.1244353 15.684,17.5099294 L15.684,18.4503647 C15.684,19.8357059 14.97219,20.5094118 13.96872,20.5094118 Z" id="Shape" fill="#1E3791" fill-rule="nonzero"></path>
                <path d="M22.5,20.3186941 L18.2178,20.3186941 L20.4114,18.1707882 C21.44985,17.1540353 22.19655,16.1880588 22.19655,14.8153812 C22.19655,13.3029153 21.2865,12.2352941 19.69965,12.2352941 C18.12435,12.2352941 17.4009,13.2774965 17.0859,14.3196988 L17.961,14.6882871 C18.1827,13.8494353 18.6495,13.1885306 19.653,13.1885306 C20.65635,13.1885306 21.1581,13.8621447 21.1581,14.8408 L21.1581,14.9933129 C21.1581,15.8448588 20.57475,16.7345176 19.81635,17.4970824 L17.15595,20.1662118 L17.15595,21.2592824 L22.5,21.2592824 L22.5,20.3186941 Z" id="Path" fill="#1E3791" fill-rule="nonzero"></path>
            </g>
        </g>
    </g>
</svg>

<svg width="30" height="26" xmlns="http://www.w3.org/2000/svg" xmlns:xlink="http://www.w3.org/1999/xlink"><defs><filter color-interpolation-filters="auto" id="a"><feColorMatrix in="SourceGraphic" values="0 0 0 0 0.974977 0 0 0 0 0.989612 0 0 0 0 0.991508 0 0 0 1.000000 0"/></filter><path d="M27.357 13.655A6.918 6.918 0 0 1 30 19.118c0 3.8-3.022 6.882-6.75 6.882H6.75C3.022 26 0 22.919 0 19.118a6.908 6.908 0 0 1 3.227-5.872A7.02 7.02 0 0 1 3 11.471C3 7.67 6.022 4.588 9.75 4.588c.63 0 1.238.088 1.816.252C13.084 1.96 16.068 0 19.5 0c4.97 0 9 4.108 9 9.176a9.275 9.275 0 0 1-1.143 4.48Z" id="b"/></defs><g transform="translate(-445 -2385)" filter="url(#a)" fill="none" fill-rule="evenodd"><g transform="translate(445 2385)"><mask id="c" fill="#fff"><use xlink:href="#b"/></mask><path d="m27.357 13.655-1.309-.747-.634 1.154 1.03.806.913-1.213Zm-24.13-.409.784 1.304.953-.596-.288-1.101-1.45.393Zm8.34-8.406-.403 1.474 1.156.328.568-1.078-1.322-.724ZM31.5 19.118a8.46 8.46 0 0 0-3.23-6.676l-1.826 2.426a5.378 5.378 0 0 1 2.056 4.25h3Zm-8.25 8.411c4.556 0 8.25-3.766 8.25-8.411h-3c0 2.956-2.35 5.353-5.25 5.353v3.058Zm-16.5 0h16.5v-3.058H6.75v3.058Zm-8.25-8.411c0 4.645 3.694 8.411 8.25 8.411v-3.058c-2.9 0-5.25-2.397-5.25-5.353h-3Zm3.943-7.176A8.444 8.444 0 0 0-1.5 19.118h3a5.371 5.371 0 0 1 2.51-4.568l-1.567-2.608Zm-.943-.471c0 .748.096 1.475.277 2.169l2.9-.787A5.462 5.462 0 0 1 4.5 11.47h-3Zm8.25-8.412c-4.556 0-8.25 3.766-8.25 8.412h3c0-2.957 2.35-5.353 5.25-5.353v-3.06Zm2.219.308a8.107 8.107 0 0 0-2.219-.308v3.059c.492 0 .965.068 1.414.196l.805-2.947Zm.919 2.197c1.267-2.405 3.754-4.035 6.612-4.035v-3.058c-4.006 0-7.486 2.288-9.255 5.645l2.643 1.448ZM19.5 1.529c4.142 0 7.5 3.424 7.5 7.647h3c0-5.912-4.701-10.705-10.5-10.705v3.058ZM27 9.176c0 1.358-.346 2.63-.952 3.732l2.618 1.495A10.828 10.828 0 0 0 30 9.176h-3Z" fill="#1E3791" fill-rule="nonzero" mask="url(#c)"/></g><path d="M453.684 2406.412c1.143 0 1.925-.61 2.31-1.55l-.677-.496c-.326.75-.875 1.143-1.633 1.143-1.109 0-1.68-.826-1.68-1.97v-1.118c0-1.144.571-1.97 1.68-1.97.735 0 1.248.394 1.47 1.068l.782-.433c-.35-.902-1.062-1.538-2.252-1.538-1.692 0-2.684 1.335-2.684 3.432s.992 3.432 2.684 3.432Zm5.285 0c1.61 0 2.719-1.347 2.719-3.432 0-2.084-1.109-3.432-2.72-3.432-1.61 0-2.718 1.348-2.718 3.432 0 2.085 1.108 3.432 2.719 3.432Zm0-.903c-1.004 0-1.716-.673-1.716-2.059v-.94c0-1.386.712-2.06 1.716-2.06 1.003 0 1.715.674 1.715 2.06v.94c0 1.386-.712 2.06-1.715 2.06Zm8.531-.19h-4.282l2.193-2.148c1.039-1.017 1.786-1.983 1.786-3.356 0-1.512-.91-2.58-2.497-2.58-1.576 0-2.3 1.042-2.614 2.085l.875.368c.222-.839.688-1.5 1.692-1.5 1.003 0 1.505.674 1.505 1.653v.152c0 .852-.583 1.742-1.342 2.504l-2.66 2.67v1.092h5.344v-.94Z" fill="#1E3791" fill-rule="nonzero"/></g></svg>
